X:1
T:The Barring O' the Door
M:9/8
L:1/8
K:G
 z2 D| G2 G G2 G| GGG GFG| A2 A d2 d|
M:9/8
 B3 G3 z2 B| c2 c B2 B GGG| GFG A2 B A2 G|
M:9/8
 F2- E D3 z2 G/2G/2| G3 D2 D B,3| D3 B2- G G2- F| d2- c B2 A G3| D2 C B,3 D3|\
 G3 z2 z z2 z|||
